X:1
T:Southern Tradition
T:Southern Tradition
T:and Tom B.R.'s "New Rag"
T:Tom Brier(2010)
T:M. Meatswole
T:Stomt Brioplerin
T:Stomt Brioplerin
T:Stomt Brioplerin
C:Tom Brier(2010)
Z:Stomt Brioplerin
%%score { 1 | 2 }
L:1/8
Q:1/4=100
M:2/4
K:C
V:1 treble nm="Piano" snm="Pno."
V:2 treble 
V:1
 g/a/c' c'/ag/ | a/g/e g z | G,/A,/C C/A,E,/ | G, z [GBdg] z |: [e-g]/a/[ec'] [e-c']/[ea][e-g]/ | %5
 a/[eg]/e [eg]2 | [A-c]/d/[Ae] [_A-d]/[Ac]d/ | [Gce]2 z2 | [e-g]/a/[ec'] [e-c']/[ea][e-g]/ | %9
 a/[eg]/e [eg]2 | [^F-c]/d/[Fe] [c-a]/[ce]a/ | [Bfg] z3 | [e-g]/a/[ec'] [e-c']/[ea][e-g]/ | %13
 a/[eg]/e [eg]2 | [A-c]/d/[Ae] [_A-d]/[Ac]d/ | [Gce]2 z2 | a/[fc']a/ [fd']/c'/b/a/ | %17
 g/[ea]e/ [ca]/g/e/c/ | [Ad]/[B-e]f/ [Bg][FB] |1 [EGc] z2 z :|2 [EGc][G,G] [Cc][Ee] |: %21
 [cea]/[ceg][c^f]/ [ceg]2- | [ceg][Aa]/[Bb]/ [cc'][dd'] | [f-c']/[fb][fc']/ [Bdf]2- | %24
 [Bdf][B,B] [Dd][Ff] | [d-a]/[dg][^c^f]/ [Bdg][Bb] | [fbe']/[fbd'][^f^c']/ [gbd'][=fb] | %27
 [cgb]/[ec']e/- [ceg]2 | z [G,G] [Cc][Ee] | [cea]/[ceg][c^f]/ [ceg]2- | %30
 [ceg][_B_b]/[cc']/ [dd'][eae'] | [fae']/[fad'][fe']/ [cea] z | z [cc'] [Bb][cc'] | %33
 [egc'e']/[^d^d'][ee']/ [gc'g'][e^c'e'] | [faf']/[ee'][dd']/ [cgc'][Bb] | [cegc'] z3 |1 %36
 z [G,G] [Cc][Ee] :|2 z3/2 (3e/4f/4^f/4 [Bg]G || [e-g]/a/[ec'] [e-c']/[ea][e-g]/ | a/[eg]/e [eg]2 | %40
 [A-c]/d/[Ae] [_A-d]/[Ac]d/ | [Gce]2 z2 | [e-g]/a/[ec'] [e-c']/[ea][e-g]/ | a/[eg]/e [eg]2 | %44
 [^F-c]/d/[Fe] [c-a]/[ce]a/ | [Bfg] z3 | [e-g]/a/[ec'] [e-c']/[ea][e-g]/ | a/[eg]/e [eg]2 | %48
 [A-c]/d/[Ae] [_A-d]/[Ac]d/ | [Gce]2 z2 | a/[fc']a/ [fd']/c'/b/a/ | g/[ea]e/ [ca]/g/e/c/ | %52
 [Ad]/[B-e]f/ [Bg][FB] | [EGc] z [cegc'] z |: C- [CFc]2 A | [D^F_B]2 [DFA]2 | ^F G2 e | [G_Bd]3 f | %58
 [G_Be] [GBg]2 [GBe]/d/4e/4 | [E_Ad] [EAc]2 [Ae] | [FA] [FAd]2 [FA] | [FAc]c GE | C- [CFc]2 A | %63
 [D^F_B]2 [DFA]2 | ^F G2 e | [G_Bd]3 e | [Bf]>e [Bf]>e | [Af]c [_Gd]A | %68
"^Source: verybigrifle. '\"Southern Tradition\" Tom Brier's Newest Composition'. https://www.youtube.com/watch?v=9poTI84Q3HQ." [DAc] [DG_B]2 [_B,EG] |1 %69
 [A,CF] z [CEG_Bc]2 :|2 [A,CF] z3 || A f2 e | d^G A2 | [A,-D-F]/G/[A,DA] [A,-_D-A]/[A,DG]E/ | %74
 .[A,F].[A,E] [F,A,D] z | G e2 d | c^F G2 | [G,-C-E]/F/[G,CG] [B,-G]/[B,F]D/ | %78
 .[E,G,C].[G,B,D] [C,E,G,] z | E/F/G G/FE/ | G/A/_B B/AG/ | [G-ce]/[Gd]c/ [FAd]/e/f | %82
 [G_Bceg] z [EGBc] z ||"^Grandioso\n(Give her some feeling)" [CFc] [cfac']2 [Afa] | %84
 [_Bd^f_b]2 [Adfa]2 | [^F^f] [G_Bdg]2 [ege'] | [dg_bd']3/2(3d/4g/4b/4 d'[ff'] | %87
 [ee'] [gc'g']2 [ee'] | [dd'] [cc']2 [^G^g] | [Aa] [dfad']2 [Aa] | [cc'] z/ [_B_b]/ [Gg][Ee] | %91
 [CFc] [cfac']2 [Afa] | [_Bd^f_b]2 [Adfa]2 | [^F^f] [G_Bdg]2 [ege'] | [dg_bd']2 z [ee'] | %95
 [fbd'f']>[ee'] [fbd'f']>[ee'] | [fac'f'][cc'] [dd'][Aa] | [dac'] [dg_b]2 [_Beg] | %98
 [FAcf] z"^(With 23 hours\nto spare)" !fermata![fac'f'] z |] %99
V:2
 G/A/c c/AG/ | A/G/E G z |[K:bass] G,,/A,,/C, C,/A,,E,,/ | G,, z [G,,,G,,] z |: %4
 [C,C][G,CE] [G,,G,][G,CE] | [C,,C,][G,CE] [G,,G,][G,CE] | [F,,F,][A,CF] [F,,F,][_A,CF] | %7
 [C,,C,][G,CE] [A,,A,][G,,G,] | [C,C][G,CE] [G,,G,][G,CE] | [C,,C,][G,CE] [G,,G,][G,CE] | %10
 [A,,A,][^F,A,C] [D,,D,][F,A,C] | [G,,G,]/[A,,A,][B,,B,]/ [E,E][D,D] | [C,C][G,CE] [G,,G,][G,CE] | %13
 [C,,C,][G,CE] [G,,G,][G,CE] | [F,,F,][A,CF] [F,,F,][_A,CF] | [C,C][B,,B,] [A,,A,][G,,G,] | %16
 [F,,F,][F,A,C] [A,,A,][F,A,C] | [C,C][G,CE] [E,E][G,CE] | [D,D][G,B,D] [G,,G,]2 |1 %19
 [C,C][A,,A,] [G,,G,]/[E,,E,][D,,D,]/ :|2 [C,C] z2 z/ C,,/- |: [C,,G,,E,][G,CE] [G,,,G,,][G,CE] | %22
 [C,,C,][G,CE] [E,,E,][_E,,_E,] | [D,,D,][G,B,DF] [G,,G,][G,B,D] | %24
 [D,,D,][B,,D,G,] [G,,,G,,][G,B,D] | [D,,D,][G,B,DF] [G,,G,][G,B,DF] | %26
 [G,,F,][G,B,DF] [G,,G,][G,B,DF] | [C,,C,][G,CE] [C,C]/[B,,B,]/[A,,A,] | .[G,,G,] z2 z/ C,,/- | %29
 [C,,G,,E,][G,CE] [G,,G,][_G,,_G,] | [F,,F,][G,_B,CE] [C,,C,][G,B,CE]/F,,,/- | %31
 [F,,,A,,][A,CF] [E,,E,][D,,D,] | [C,,C,][A,CF] [B,,B,][_G,C_E] | [G,,G,][G,CE] [A,,A,][E,A,^C] | %34
 [D,,D,][G,B,D] [G,,G,][G,B,DF] | [C,E,G,C]>[A,,A,] [G,,G,][E,,E,] |1 [C,,C,] z3 :|2 %37
 [C,,C,] z [G,B,DF] z || [C,C][G,CE] [G,,G,][G,CE] | [C,,C,][G,CE] [G,,G,][G,CE] | %40
 [F,,F,][A,CF] [F,,F,][_A,CF] | [C,,C,][G,CE] [A,,A,][G,,G,] | [C,C][G,CE] [G,,G,][G,CE] | %43
 [C,,C,][G,CE] [G,,G,][G,CE] | [A,,A,][^F,A,C] [D,,D,][F,A,C] | %45
 [G,,G,]/[A,,A,][B,,B,]/ [E,E][D,D] | [C,C][G,CE] [G,,G,][G,CE] | [C,,C,][G,CE] [G,,G,][G,CE] | %48
 [F,,F,][A,CF] [F,,F,][_A,CF] | [C,C][B,,B,] [A,,A,][G,,G,] | [F,,F,][F,A,C] [A,,A,][F,A,C] | %51
 [C,C][G,CE] [E,E][G,CE] | [D,D][G,B,D] [G,,G,]2 | [C,C][G,,G,] [C,,C,] z |: %54
 [F,,F,][C,F,A,] [F,,F,][_E,,_E,] | [D,,D,][^F,A,D] [^F,,F,][F,A,D] | %56
 [G,,G,][D,G,_B,] [D,,D,][G,B,D] | [G,,G,][G,_B,D] [_B,,,_B,,][G,B,D] | %58
 [E,,E,][G,CE] [C,,C,][G,CE] | [E,,E,][_A,CE] [C,,C,][E,,E,] | [F,,F,][F,A,C] [E,,E,][D,,D,] | %61
 [C,,C,][C,,C,] [D,,D,][E,,E,] | [F,,F,][C,F,A,] [F,,F,][_E,,_E,] | %63
 [D,,D,][^F,A,D] [^F,,F,][F,A,D] | [G,,G,][D,G,_B,] [D,,D,][G,B,D] | [G,,G,][G,_B,D] [G,B,D] z | %66
 [B,,B,][B,DF] [B,,B,][B,DF] | [C,C][A,CF] [D,,D,][D,^F,A,C] | [G,,G,][G,_B,D] [C,,C,]2 |1 %69
 [F,,F,] z [C,,C,]2 :|2 [F,,F,][C,,C,] [F,,,F,,] z || A, F2 E | D^G, A,2 | %73
 [F,,A,,D,]2 [E,,A,,_D,]2 | .[A,,D,].[E,,A,,] [F,,,A,,,D,,] z | G, E2 D | C^F, G,2 | %77
 [G,,C,E,]2 [G,,B,,D,]2 | .[E,,G,,C,].[F,,B,,D,] [C,,E,,G,,] z | C,/D,/E, E,/D,C,/ | %80
 E,/F,/G, G,/F,E,/ | [C,E,G,]2 [D,F,A,]2 | [E,G,C] z [C,,C,] z/ F,,/4-C,/4- || %83
 [F,,C,A,][A,CF] [F,,F,][_E,,_E,] | [D,,D,][^F,A,C] [^F,,F,][F,A,C]/G,,/4-D,/4- | %85
 [G,,D,_B,][G,B,D] [D,,D,][G,B,D] | [G,,G,][G,_B,D] [_B,,B,][G,B,D]/E,,/4-C,/4- | %87
 [E,,C,G,][G,CE] [C,,C,][G,CE] | [E,,E,][G,CE] [C,,C,][E,,E,]/F,,/4-C,/4- | %89
 [F,,C,A,][A,CF] [E,,E,][D,,D,] | [C,,C,][C,,C,] [D,,D,][E,,E,]/F,,/4-C,/4- | %91
 [F,,C,A,][A,CF] [F,,F,][_E,,_E,] | [D,,D,][^F,A,C] [^F,,F,][F,A,C]/G,,/4-D,/4- | %93
 [G,,D,_B,][G,B,D] [D,,D,][G,B,D] | [G,,G,][G,_B,D] [G,B,D] z | [B,,B,][B,DF] [B,,B,][B,DF] | %96
 [C,C][A,CF] [D,,D,][D,^F,A,C] | [G,,G,][G,_B,D] [C,,C,][G,CE] | [F,,F,] z !fermata![F,,,F,,] z |] %99

